X:156
T:Jane's Reel
M:C|
C:© Paul Gitlitz 2007
R:Reel
N: Knoeck and I did a fun Ide's of March /Saint Paddy's weekend of dances in
N:Western New York state.
K:Em
"Em"E4 E3 G| "Bm7"FEDF "Em"EF3|"G"G4 G3B |"D"AGFA "G"GB3|!
"G"d2de dcB2|"C"cBcd "Am"cBA2|"Em"BAGB "D"AGFA|1"Em"GE3 E2B,2:|2"Em"GE3  E2B2|!
|:"G"g2ga bag2|"D"fd3 d3e|"Bm"f2fg agf2|"C"ec3 c3e|!
"Em"eBgB fBeB|"D"dAA^G A3c|"Em"BAGB "D"AGFA|"Em"GE3 E2B2:|!
